!!!COM: Corelli, Arcangelo
!!!OTL: 
!!!ONM: Opus 6, No. 9
!!!OMV: 2
!!!CDT: 1653/2/17/-1713/1/8/
!!!OCY: Italia
**kern	**kern	**kern	**kern	**kern	**kern	**kern
*clefC	*clefG	*clefG	*clefG	*clefC	*clefG	*clefG
*k[b-]	*k[b-]	*k[b-]	*k[b-]	*k[b-]	*k[b-]	*k[b-]
*F:	*F:	*F:	*F:	*F:	*F:	*F:
*M4/4	*M4/4	*M4/4	*M4/4	*M4/4	*M4/4	*M4/4
=1	=1	=1	=1	=1	=1	=1
8F	4.a	4a	4cc	8F	4a	4cc
8E	.	.	.	8E	.	.
8F	.	4cc	16r	8F	4cc	16r
.	.	.	16cc	.	.	16cc
8C	8cc	.	16dd	8C	.	16dd
.	.	.	16ee	.	.	16ee
8D	4f	8a	8ff	8D	8a	8ff
8C	.	8cc	8f	8C	8cc	8f
8D	4a	[4ff	8r	8D	[4ff	8r
8AA	.	.	16ff	8AA	.	16ff
.	.	.	16cc	.	.	16cc
=2	=2	=2	=2	=2	=2	=2
8BB-	4g	4ff]	8dd	8BB-	4ff]	8dd
8GG	.	.	16cc	8GG	.	16cc
.	.	.	16dd	.	.	16dd
8C	4c	4ee	4b-	8C	4ee	4b-
8CC	.	.	.	8CC	.	.
4FF	4c	8r	4a	4FF	8r	4a
.	.	8aa	.	.	8aa	.
8r	8r	8ddd	8r	8r	8ddd	8r
8f	8a	8dd	8dd	8f	8dd	8dd
=3	=3	=3	=3	=3	=3	=3
8e	8g	8r	8dd	16e	8r	8dd
.	.	.	.	16d	.	.
8E	8G	8gg	8cc	16e	8gg	8cc
.	.	.	.	16f	.	.
8r	8r	8ccc	8r	16e	8ccc	8r
.	.	.	.	16f	.	.
8e	8g	8cc	8cc	16e	8cc	8cc
.	.	.	.	16f	.	.
8d	8f	8r	8ff	16d	8r	8ff
.	.	.	.	16c	.	.
8D	8F	8ff	8b-	16d	8ff	8b-
.	.	.	.	16e	.	.
8r	8r	8bb-	8r	16d	8bb-	8r
.	.	.	.	16e	.	.
8d	8f	8b-	8b-	16d	8b-	8b-
.	.	.	.	16e	.	.
=4	=4	=4	=4	=4	=4	=4
8c	8e	8r	8b-	16c	8r	8b-
.	.	.	.	16B-	.	.
8C	8E	8ee	8a	16c	8ee	8a
.	.	.	.	16d	.	.
8r	8r	8aa	8r	16c	8aa	8r
.	.	.	.	16d	.	.
8c	8e	8a	8a	16c	8a	8a
.	.	.	.	16d	.	.
8B-	8d	8r	8dd	16B-	8r	8dd
.	.	.	.	16A	.	.
8BB-	8D	8dd	8g	16B-	8dd	8g
.	.	.	.	16c	.	.
8r	8r	8gg	8r	16B-	8gg	8r
.	.	.	.	16c	.	.
8B-	8d	8g	8g	16B-	8g	8g
.	.	.	.	16c	.	.
=5	=5	=5	=5	=5	=5	=5
8A	8c	8r	8cc	16A	8r	8cc
.	.	.	.	16G	.	.
8AA	8C	8ff	8c	16A	8ff	8c
.	.	.	.	16B-	.	.
8r	8r	8cc	2f	16A	8cc	2f
.	.	.	.	16c	.	.
8A	8f	8a	.	16B-	8a	.
.	.	.	.	16A	.	.
8B-	4g	8dd	.	16B-	8dd	.
.	.	.	.	16c	.	.
8G	.	16cc	.	16A	16cc	.
.	.	16dd	.	16B-	16dd	.
8c	4c	4b-	4e	8c	4b-	4e
8C	.	.	.	8C	.	.
=6	=6	=6	=6	=6	=6	=6
4F	4c	4a	4f	4F	4a	16f
.	.	.	.	.	.	16ff
.	.	.	.	.	.	16ee
.	.	.	.	.	.	16ff
2r	2r	2r	2r	4AA	8r	16cc
.	.	.	.	.	.	16ff
.	.	.	.	.	8cc	16ee
.	.	.	.	.	.	16ff
.	.	.	.	4BB-	4f	16dd
.	.	.	.	.	.	16ff
.	.	.	.	.	.	16ee
.	.	.	.	.	.	16ff
4AA	4f	4cc	4ff	4AA	8r	16cc
.	.	.	.	.	.	16ff
.	.	.	.	.	8cc	16ee
.	.	.	.	.	.	16ff
=7	=7	=7	=7	=7	=7	=7
4BB-	4f	4f	4dd	4BB-	4f	16dd
.	.	.	.	.	.	16gg
.	.	.	.	.	.	16ff
.	.	.	.	.	.	16gg
2r	2r	2r	2r	4BB	8r	16dd
.	.	.	.	.	.	16gg
.	.	.	.	.	8dd	16ff
.	.	.	.	.	.	16gg
.	.	.	.	4C	4g	16ee
.	.	.	.	.	.	16gg
.	.	.	.	.	.	16ff
.	.	.	.	.	.	16gg
4BB	4g	4dd	4gg	4BB	8r	16dd
.	.	.	.	.	.	16gg
.	.	.	.	.	8dd	16ff
.	.	.	.	.	.	16gg
=8	=8	=8	=8	=8	=8	=8
8C	4g	16g	4ee	8C	16g	8ee
.	.	16ee	.	.	16ee	.
8c	.	16gg	.	8c	16gg	8cc
.	.	16ee	.	.	16ee	.
8e	8r	16cc	8r	8e	16cc	8r
.	.	16ee	.	.	16ee	.
8c	8ee	16aa	8aa	8c	16aa	8aa
.	.	16cc	.	.	16cc	.
8r	8dd	16b	8aa	8r	16b	8aa
.	.	16dd	.	.	16dd	.
8B	8d	16gg	8gg	8B	16gg	8gg
.	.	16dd	.	.	16dd	.
8d	8r	16b	8r	8d	16b	8r
.	.	16dd	.	.	16dd	.
8B	8dd	16gg	8gg	8B	16gg	8gg
.	.	16b	.	.	16b	.
=9	=9	=9	=9	=9	=9	=9
8r	8cc	16a	8ccc	8r	16a	8ccc
.	.	16cc	.	.	16cc	.
8A	8c	16ff	8ff	8A	16ff	8ff
.	.	16cc	.	.	16cc	.
8c	8r	16a	8r	8c	16a	8r
.	.	16cc	.	.	16cc	.
8A	8cc	16ff	8ff	8A	16ff	8ff
.	.	16a	.	.	16a	.
8r	8b	16g	8ff	8r	16g	8ff
.	.	16b	.	.	16b	.
8G	8B	16ee	8ee	8G	16ee	8ee
.	.	16b	.	.	16b	.
8B	8r	16g	8r	8B	16g	8r
.	.	16b	.	.	16b	.
8G	8b	16ee	8ee	8G	16ee	8ee
.	.	16g	.	.	16g	.
=10	=10	=10	=10	=10	=10	=10
8r	8a	16f	8aa	8r	16f	8aa
.	.	16a	.	.	16a	.
8F	8A	16dd	8dd	8F	16dd	8dd
.	.	16a	.	.	16a	.
8A	8r	16f	8r	8A	16f	8r
.	.	16a	.	.	16a	.
8F	8a	16dd	8dd	8F	16dd	8dd
.	.	16f	.	.	16f	.
8r	8g	16e	8gg	8r	16e	8gg
.	.	16g	.	.	16g	.
8E	8G	16cc	8g	8E	16cc	8g
.	.	16g	.	.	16g	.
8G	8r	16e	[4cc	8G	16e	[4cc
.	.	16g	.	.	16g	.
8E	8c	16cc	.	8E	16cc	.
.	.	16e	.	.	16e	.
=11	=11	=11	=11	=11	=11	=11
8D	8d	16f	4cc]	8D	16f	4cc]
.	.	16b	.	.	16b	.
16E	8c	16cc	.	16E	16cc	.
16F	.	16e	.	16F	16e	.
8G	8.g	16d	4b	8G	16d	4b
.	.	16cc	.	.	16cc	.
8GG	.	16b	.	8GG	16b	.
.	16g	16d	.	.	16d	.
4C	4e	4c	4cc	16r	8c	4cc
.	.	.	.	16c	.	.
.	.	.	.	16B	8gg	.
.	.	.	.	16c	.	.
4r	4r	4r	4r	16E	4cc	8r
.	.	.	.	16c	.	.
.	.	.	.	16B	.	8gg
.	.	.	.	16c	.	.
=12	=12	=12	=12	=12	=12	=12
2..r	2..r	2..r	2..r	16F	8r	4cc
.	.	.	.	16c	.	.
.	.	.	.	16B	8gg	.
.	.	.	.	16c	.	.
.	.	.	.	16G	4cc	8r
.	.	.	.	16c	.	.
.	.	.	.	16B	.	8gg
.	.	.	.	16c	.	.
.	.	.	.	16A	8r	4cc
.	.	.	.	16c	.	.
.	.	.	.	16B	8gg	.
.	.	.	.	16c	.	.
.	.	.	.	16E	8cc	8r
.	.	.	.	16c	.	.
8E	8cc	8ee	8gg	16B	8ee	8gg
.	.	.	.	16c	.	.
=13	=13	=13	=13	=13	=13	=13
8F	8cc	16a	8aa	16F	16a	8aa
.	.	16b	.	16c	16b	.
8C	16e	8cc	16ff	16B	8cc	16ff
.	16f	.	16ee	16c	.	16ee
8G	8.g	8.cc	4dd	16G	8.cc	4dd
.	.	.	.	16c	.	.
8GG	.	.	.	16B	.	.
.	16g	16b	.	16c	16b	.
4C	4e	4cc	4cc	16C	8cc	4cc
.	.	.	.	16c	.	.
.	.	.	.	16B	8gg	.
.	.	.	.	16c	.	.
4r	4r	4r	4r	16E	4cc	8r
.	.	.	.	16c	.	.
.	.	.	.	16B	.	8gg
.	.	.	.	16c	.	.
=14	=14	=14	=14	=14	=14	=14
2..r	2..r	2..r	2..r	16F	8r	4cc
.	.	.	.	16c	.	.
.	.	.	.	16B	8gg	.
.	.	.	.	16c	.	.
.	.	.	.	16G	4cc	8r
.	.	.	.	16c	.	.
.	.	.	.	16B	.	8gg
.	.	.	.	16c	.	.
.	.	.	.	16A	8r	4cc
.	.	.	.	16c	.	.
.	.	.	.	16B	8gg	.
.	.	.	.	16c	.	.
.	.	.	.	16E	8cc	8r
.	.	.	.	16c	.	.
8E	8c	8ee	8gg	16B	8ee	8gg
.	.	.	.	16c	.	.
=15	=15	=15	=15	=15	=15	=15
8F	8c	16a	8aa	16F	16a	8aa
.	.	16b	.	16c	16b	.
8C	16e	8cc	16ff	16B	8cc	16ff
.	16f	.	16ee	16c	.	16ee
8G	8.g	8.cc	4dd	16G	8.cc	4dd
.	.	.	.	16c	.	.
8GG	.	.	.	16B	.	.
.	16g	16b	.	16c	16b	.
2C	2e	2cc	2cc	2C	2cc	2cc
=16	=16	=16	=16	=16	=16	=16
4c	4cc	4ee	4gg	4c	4ee	4gg
4B	4g	4dd	4gg	4B	4dd	4gg
4c	4g	4ee	4gg	4c	4ee	4gg
4r	4r	4r	4r	4r	4r	4r
=17	=17	=17	=17	=17	=17	=17
4d	4dd	4ff	4aa	4d	4ff	4aa
4c#	4a	4ee	4aa	4c#	4ee	4aa
4d	4a	4ff	4aa	4d	4ff	4aa
4r	4r	4r	4r	4r	4r	4r
=18	=18	=18	=18	=18	=18	=18
1r	1r	1r	1r	1r	4ff	8dd
.	.	.	.	.	.	8bb-
.	.	.	.	.	4ee	8cc
.	.	.	.	.	.	8aa
.	.	.	.	.	4dd	8b-
.	.	.	.	.	.	8gg
.	.	.	.	.	4cc	8a
.	.	.	.	.	.	8ff
=19	=19	=19	=19	=19	=19	=19
2r	2r	2r	2r	2r	4b-	8g
.	.	.	.	.	.	8ee
.	.	.	.	.	4a	8f
.	.	.	.	.	.	8dd
8r	8r	8r	8r	8r	8g	8e
8A	8a	8a	8cc#	8A	8a	8cc#
8B-	8dd	8.f	[4dd	8B-	8.f	[4dd
8G	8b-	.	.	8G	.	.
.	.	16e	.	.	16e	.
=20	=20	=20	=20	=20	=20	=20
4A	4a	4f	4dd]	4A	4f	4dd]
8AA	4a	4e	4cc#	8AA	4e	4cc#
8A	.	.	.	8A	.	.
16d	4a	4d	4dd	16d	4d	4dd
16c	.	.	.	16c	.	.
16d	.	.	.	16d	.	.
16e	.	.	.	16e	.	.
16d	4r	4r	8r	16d	4r	8r
16e	.	.	.	16e	.	.
16c	.	.	8dd	16c	.	8dd
16d	.	.	.	16d	.	.
=21	=21	=21	=21	=21	=21	=21
4B	4g	4dd	16gg	4B	4dd	16gg
.	.	.	16ff	.	.	16ff
.	.	.	16gg	.	.	16gg
.	.	.	16aa	.	.	16aa
8r	4g	4dd	16gg	8r	4dd	16gg
.	.	.	16aa	.	.	16aa
8G	.	.	16ff	8G	.	16ff
.	.	.	16gg	.	.	16gg
16c	4g	4g	4ee	16c	4g	4ee
16B-	.	.	.	16B-	.	.
16c	.	.	.	16c	.	.
16d	.	.	.	16d	.	.
16c	4r	4r	8r	16c	4r	8r
16d	.	.	.	16d	.	.
16B-	.	.	8gg	16B-	.	8gg
16c	.	.	.	16c	.	.
=22	=22	=22	=22	=22	=22	=22
8A	4c	4ff	16ccc	8A	4ff	16ccc
.	.	.	16bb-	.	.	16bb-
8F	.	.	16ccc	8F	.	16ccc
.	.	.	16ddd	.	.	16ddd
8E	4c	4gg	16ccc	8E	4gg	16ccc
.	.	.	16ddd	.	.	16ddd
8C	.	.	16bb-	8C	.	16bb-
.	.	.	16ccc	.	.	16ccc
4F	4c	8cc	4aa	8r	8cc	4aa
.	.	8aa	.	8f	8aa	.
8r	8r	4gg	8r	8e	4gg	8r
8E	8cc	.	8ccc	8E	.	8ccc
=23	=23	=23	=23	=23	=23	=23
4D	4dd	8r	4bb-	8D	8r	4bb-
.	.	8ff	.	8d	8ff	.
8r	8r	4ee	8r	8c	4ee	8r
8C	8a	.	8aa	8C	.	8aa
4BB-	4b-	8r	4gg	8BB-	8r	4gg
.	.	8dd	.	8B-	8dd	.
8r	8r	4cc	8r	8A	4cc	8r
8AA	8cc	.	8ff	8AA	.	8ff
=24	=24	=24	=24	=24	=24	=24
4GG	4b-	8.dd	4bb-	8GG	8.dd	4bb-
.	.	.	.	8G	.	.
.	.	16ee	.	.	16ee	.
4FF	4cc	8.ff	8.aa	8F	8.ff	8.aa
.	.	.	.	8FF	.	.
.	.	16gg	16bb-	.	16gg	16bb-
4C	4cc	4ee	4gg	4C	4ee	4gg
8r	8r	8r	[4cc	8r	8r	[4cc
8c	8g	8e	.	8c	8e	.
=25	=25	=25	=25	=25	=25	=25
4d	4f	4.f	8cc]	4d	4.f	8cc]
.	.	.	8f	.	.	8f
8r	8r	.	4.b-	8r	.	4.b-
8D	8d	8f	.	8D	8f	.
8E	4c	8g	.	8E	8g	.
8C	.	8e	8cc	8C	8e	8cc
8F	8r	[4f	8a	8F	[4f	8a
8BB-	8d	.	8g	8BB-	.	8g
=26	=26	=26	=26	=26	=26	=26
4C	4c	4f]	4a	4C	4f]	4a
4CC	4c	4e	4g	4CC	4e	4g
4FF	4A	4f	4f	4FF	4f	16f
.	.	.	.	.	.	16ff
.	.	.	.	.	.	16ee
.	.	.	.	.	.	16ff
4r	4r	4r	4r	4A	8r	16cc
.	.	.	.	.	.	16ff
.	.	.	.	.	8cc	16ee
.	.	.	.	.	.	16ff
=27	=27	=27	=27	=27	=27	=27
4r	4r	4r	4r	4B-	4f	16dd
.	.	.	.	.	.	16ff
.	.	.	.	.	.	16ee
.	.	.	.	.	.	16ff
4AA	4f	4cc	4ff	4A	8r	16cc
.	.	.	.	.	.	16ff
.	.	.	.	.	8cc	16ee
.	.	.	.	.	.	16ff
4BB-	4f	4f	4dd	4B-	4f	16dd
.	.	.	.	.	.	16gg
.	.	.	.	.	.	16ff
.	.	.	.	.	.	16gg
4r	4r	4r	4r	4B	8r	16dd
.	.	.	.	.	.	16gg
.	.	.	.	.	8dd	16ff
.	.	.	.	.	.	16gg
=28	=28	=28	=28	=28	=28	=28
4r	4r	4r	4r	4c	4g	16dd
.	.	.	.	.	.	16gg
.	.	.	.	.	.	16ff
.	.	.	.	.	.	16gg
4BB	4g	4dd	4gg	4B	8r	16dd
.	.	.	.	.	.	16gg
.	.	.	.	.	8dd	16ff
.	.	.	.	.	.	16gg
4C	4g	4f	4ee	4c	16g	16ee
.	.	.	.	.	16aa	16ccc
.	.	.	.	.	16gg	16bb-
.	.	.	.	.	16aa	16ccc
4r	4r	4r	4r	4r	16ff	16aa
.	.	.	.	.	16aa	16ccc
.	.	.	.	.	16gg	16bb-
.	.	.	.	.	16aa	16ccc
=29	=29	=29	=29	=29	=29	=29
2..r	2..r	2..r	2..r	2..r	16ff	16aa
.	.	.	.	.	16aa	16ccc
.	.	.	.	.	16gg	16bb-
.	.	.	.	.	16aa	16ccc
.	.	.	.	.	16ff	16aa
.	.	.	.	.	16aa	16ccc
.	.	.	.	.	16gg	16bb-
.	.	.	.	.	16aa	16ccc
.	.	.	.	.	16ff	16aa
.	.	.	.	.	16aa	16ccc
.	.	.	.	.	16gg	16bb-
.	.	.	.	.	16aa	16ccc
.	.	.	.	.	16ff	16aa
.	.	.	.	.	16aa	16ccc
8A	8f	8aa	8ccc	8A	16gg	16bb-
.	.	.	.	.	16aa	16ccc
=30	=30	=30	=30	=30	=30	=30
8B-	8f	16dd	8ddd	8B-	16dd	8ddd
.	.	16ee	.	.	16ee	.
8F	16a	8ff	8aa	8F	8ff	8aa
.	16b-	.	.	.	.	.
8c	8.cc	8.ff	4gg	8c	8.ff	4gg
8C	.	.	.	8C	.	.
.	16cc	16ee	.	.	16ee	.
4F	4a	4ff	4ff	16r	8ff	4ff
.	.	.	.	16f	.	.
.	.	.	.	16e	8ccc	.
.	.	.	.	16f	.	.
4r	4r	4r	4r	16A	4ff	8r
.	.	.	.	16f	.	.
.	.	.	.	16e	.	8ccc
.	.	.	.	16f	.	.
=31	=31	=31	=31	=31	=31	=31
2..r	2..r	2..r	2..r	16B-	8r	4ff
.	.	.	.	16f	.	.
.	.	.	.	16e	8ccc	.
.	.	.	.	16f	.	.
.	.	.	.	16c	4ff	8r
.	.	.	.	16f	.	.
.	.	.	.	16e	.	8ccc
.	.	.	.	16f	.	.
.	.	.	.	16d	8r	4ff
.	.	.	.	16f	.	.
.	.	.	.	16e	8ccc	.
.	.	.	.	16f	.	.
.	.	.	.	16A	8ff	8r
.	.	.	.	16f	.	.
8A	8f	8aa	8ccc	16e	8aa	8ccc
.	.	.	.	16f	.	.
=32	=32	=32	=32	=32	=32	=32
8B-	4f	16dd	8gg	16B-	16dd	8gg
.	.	16ee	.	16f	16ee	.
8F	.	8ff	16aa	16e	8ff	16aa
.	.	.	16bb-	16f	.	16bb-
8c	8r	8.ff	4gg	16c	8.ff	4gg
.	.	.	.	16f	.	.
8C	8c	.	.	16e	.	.
.	.	16ee	.	16f	16ee	.
4F	4A	4ff	4ff	16F	8ff	4ff
.	.	.	.	16F	.	.
.	.	.	.	16E	8ccc	.
.	.	.	.	16F	.	.
4r	4r	4r	4r	16AA	4ff	8r
.	.	.	.	16F	.	.
.	.	.	.	16E	.	8ccc
.	.	.	.	16F	.	.
=33	=33	=33	=33	=33	=33	=33
2..r	2..r	2..r	2..r	16BB-	8r	4ff
.	.	.	.	16F	.	.
.	.	.	.	16E	8ccc	.
.	.	.	.	16F	.	.
.	.	.	.	16C	4ff	8r
.	.	.	.	16F	.	.
.	.	.	.	16E	.	8ccc
.	.	.	.	16F	.	.
.	.	.	.	16D	8r	4ff
.	.	.	.	16F	.	.
.	.	.	.	16E	8ccc	.
.	.	.	.	16F	.	.
.	.	.	.	16AA	8ff	8r
.	.	.	.	16F	.	.
8A	8f	8aa	8ccc	16E	8aa	8ccc
.	.	.	.	16F	.	.
=34	=34	=34	=34	=34	=34	=34
8B-	4f	16dd	8gg	16BB-	16dd	8gg
.	.	16ee	.	16F	16ee	.
8F	.	8ff	16aa	16E	8ff	16aa
.	.	.	16bb-	16F	.	16bb-
8c	8r	8.ff	4gg	16C	8.ff	4gg
.	.	.	.	16F	.	.
8C	8c	.	.	16E	.	.
.	.	16ee	.	16F	16ee	.
4F	4A	4ff	8ff	4FF	4ff	8ff
.	.	.	8f	.	.	8f
8r	8r	8r	[4b-	8r	8r	[4b-
8BB-	8d	8dd	.	8BB-	8dd	.
=35	=35	=35	=35	=35	=35	=35
8C	8G	8e	8b-]	8C	8e	8b-]
8FF	16A	4f	8a	8FF	4f	8a
.	16B-	.	.	.	.	.
8C	8.c	.	4g	8C	.	4g
8CC	.	8e	.	8CC	8e	.
.	16c	.	.	.	.	.
2FF	2A	2f	2f	2FF	2f	2f
==	==	==	==	==	==	==
*-	*-	*-	*-	*-	*-	*-
!!!RWG: This file only contains pitch and duration data.
!!!RWG: Transposing instruments are not transposed.
!!!RWG: Durations of rests and tied notes may be interpreted.
!!!RWG: Key is interpreted using the Humdrum key tool.
!!!SCA: 
!!!YOR: Chrysander Edition
!!!AGN: concerto grosso
!!!AFT: stage1
!!!ENC: F. Bennion
!!!END: 1997/04/15
!!!AST: baroque
!!!YEC: Copyright 1994, Center for Computer Assisted Research in the Humanities
!!!YEM: Rights to all derivative electronic formats reserved.
!!!YEM: Refer to licensing agreement for further details.
!!!YEN: United States of America
!!!EED: W.B. Hewlett
!!!KEY: 1868757046
!!!EMD: Converted from MuseData to Humdrum Aug 9, 1999, by Bret Aarden using muse2kern.
!!!VTS: 1661329049
